X:96
T: WILLST DU MICH DENN NICHT MEHR LIEBEN
N: E0699A
O: Europa, Mitteleuropa, Deutschland, Mittelmark, Gransee
R: Liebes - Lied, Leid, Klage
M: 3/4
L: 1/16
K: G
 | G3DD2D2E2F2 | G2B2B4z4 |
c3DD2D2E2F2 | G8z4 |
G3AB2B2A2B2 | d4c4z4 |
A3AA2e2e2F2 | G8z4

@@@ Tune index: 4409
